src/pos-icons/arrow-up-down-bold-outline.svg

<svg height="24" viewBox="0 0 24 24" width="24" xmlns="http://www.w3.org/2000/svg"><path d="m16 10h6l-10-10-10 10h6v4h-6l10 10 10-10h-6zm-2 6h3l-5 5-5-5h3v-8h-3l5-5 5 5h-3z"/></svg>

<?xml version="1.0" encoding="UTF-8"?><!DOCTYPE svg PUBLIC "-//W3C//DTD SVG 1.1//EN" "http://www.w3.org/Graphics/SVG/1.1/DTD/svg11.dtd"><svg xmlns="http://www.w3.org/2000/svg" xmlns:xlink="http://www.w3.org/1999/xlink" version="1.1" id="mdi-arrow-up-down-bold-outline" width="24" height="24" viewBox="0 0 24 24"><path d="M16,10H22L12,0L2,10H8V14H2L12,24L22,14H16V10M14,16H17L12,21L7,16H10V8H7L12,3L17,8H14V16Z" /></svg>
